styles/emoji-one/1f4b2.svg

<svg xmlns="http://www.w3.org/2000/svg" viewBox="0 0 64 64" enable-background="new 0 0 64 64"><path fill="#83bf4f" d="m50 28h-36c-3.314 0-6-2.687-6-6s2.686-6 6-6h36c3.314 0 6 2.687 6 6h8c0-7.732-6.268-14-14-14h-14v-8h-8v8h-14c-7.732 0-14 6.268-14 14s6.268 14 14 14h36c3.314 0 6 2.687 6 6 0 3.314-2.686 6-6 6v-.002h-36v.002c-3.314 0-6-2.688-6-6h-8c0 7.732 6.268 14 14 14h14v8h8v-8h14c7.732 0 14-6.268 14-14s-6.268-14-14-14"/></svg>

<svg xmlns="http://www.w3.org/2000/svg" viewBox="0 0 64 64"><path fill="#83bf4f" d="M50 28H14a6 6 0 0 1 0-12h36a6 6 0 0 1 6 6h8c0-7.732-6.268-14-14-14H36V0h-8v8H14C6.268 8 0 14.268 0 22s6.268 14 14 14h36a6 6 0 0 1 0 12v-.002H14V48a6 6 0 0 1-6-6H0c0 7.732 6.268 14 14 14h14v8h8v-8h14c7.732 0 14-6.268 14-14s-6.268-14-14-14"/></svg>
